!!!COM: Anonymous
!!!OPR: Missa Gross senen
!!!ONM: 5
!!!OTL: Agnus Dei
!!!AGN: Mass; Agnus Dei
!!!SCT: Ano1026e
!!!SCA: Ano1026e
!!!SMS: Trent 89
!!!folio-OPR:
!!!folio:
!!!voices: 4
**kern	**text	**kern	**text	**kern	**text	**kern	**text
*staff4	*staff4	*staff3	*staff3	*staff2	*staff2	*staff1	*staff1
*Ivox	*	*Ivox	*	*Ivox	*	*Ivox	*
*I"Bassus	*	*I"Tenor	*	*I"Altus	*	*I"Discantus	*
*I'B	*	*I'T	*	*I'A	*	*I'D	*
*>[A,B,C]	*>[A,B,C]	*>[A,B,C]	*>[A,B,C]	*>[A,B,C]	*>[A,B,C]	*>[A,B,C]	*>[A,B,C]
*>A	*>A	*>A	*>A	*>A	*>A	*>A	*>A
*M2/1	*	*M2/1	*	*M2/1	*	*M2/1	*
*met(C)	*	*met(C)	*	*met(C)	*	*met(C)	*
*MM300	*	*MM300	*	*MM300	*	*MM300	*
*clefF4	*	*clefGv2	*	*clefGv2	*	*clefG2	*
*k[b-e-]	*	*k[b-]	*	*k[b-]	*	*k[b-]	*
=1-	=1-	=1-	=1-	=1-	=1-	=1-	=1-
!!!OMD: Agnus I
!!section: Agnus I
!	!	!LO:TX:Z=8:t=T&colon; twofold augmentation [no MS instruction]	!	!	!	!	!
*	*	*rscale:1/2	*	*	*	*	*
!	!	!LO:N:vis=0	!	!	!	!	!
[0G	A-	0r	.	[0G	A-	1.g	A-
.	.	.	.	.	.	2a	.
=2	=2	=2-	=2	=2	=2	=2	=2
0G]	.	0ryy	.	1G]	.	1.b-	.
.	.	.	.	2B-	.	.	.
.	.	.	.	2c	.	4a	.
.	.	.	.	.	.	4g	.
=3	=3	=3	=3	=3	=3	=3	=3
!	!	!LO:N:vis=0	!	!	!	!	!
2.D	-gnus	0r	.	2.d	-gnus	2b-	-gnus
.	.	.	.	.	.	1a	.
4E-	.	.	.	4c	.	.	.
2F	.	.	.	2d	.	.	.
2G	.	.	.	2e-i	.	4g	.
.	.	.	.	.	.	4f	.
=4	=4	=4-	=4	=4	=4	=4	=4
1E-	de-	0ryy	.	2.c	de-	2.g	.
.	.	.	.	4B-	.	4a	.
[1D	-i,	.	.	2.d	.	[1f	de-
.	.	.	.	4c	.	.	.
=5	=5	=5	=5	=5	=5	=5	=5
!	!	!LO:N:vis=0	!	!	!	!	!
1D]	.	0r	.	2.A	.	2f]	.
.	.	.	.	.	.	4e	.
.	.	.	.	4B-	.	4d	.
1r	.	.	.	2c	.	2e	.
.	.	.	.	2d	.	[2d	.
=6	=6	=6-	=6	=6	=6	=6	=6
!	!	!	!	!LO:TX:Z=12:t=MS&colon; a f	!	!	!
1GG	de-	0ryy	.	2B-	.	2d]	.
.	.	.	.	2G	.	2.g	.
1D	.	.	.	1A	.	.	.
.	.	.	.	.	.	4f#i	.
.	.	.	.	.	.	4f#i	.
.	.	.	.	.	.	4e	.
=7	=7	=7	=7	=7	=7	=7	=7
[0GG	-i,	0G	A-	2.G	-i,	1g	-i,
.	.	.	.	8FL	.	.	.
.	.	.	.	8EJ	.	.	.
.	.	.	.	1D	.	1r	.
=8	=8	=8-	=8	=8	=8	=8	=8
0GG]	.	1G	-gnus	1r	.	1b-	a-
.	.	1G	de-	[1d	a-	2.b-	-gnus
.	.	.	.	.	.	4a	.
=9	=9	=9	=9	=9	=9	=9	=9
1r	.	0B-	.	2d]	.	2g	.
.	.	.	.	2B-	.	2f	.
1G	a-	.	.	2d	-gnus	1b-	.
.	.	.	.	2e	.	.	.
=10	=10	=1-0	=10	=10	=10	=10	=10
1F	-gnus	1c	.	1f	de-	2a	.
.	.	.	.	.	.	1a	de-
1D	.	1d	.	1d	.	.	.
.	.	.	.	.	.	2f	.
=11	=11	=11	=11	=11	=11	=11	=11
0E-	de-	1B-	.	0G	.	4g	.
.	.	.	.	.	.	4f	.
.	.	.	.	.	.	4e-i	.
.	.	.	.	.	.	4d	.
.	.	1G	.	.	.	2.c	.
.	.	.	.	.	.	4B-	.
=12	=12	=12-	=12	=12	=12	=12	=12
1D	.	0A	.	1F	-i,	2d	.
.	.	.	.	.	.	2d	-i,
1F	.	.	.	1r	.	2r	.
.	.	.	.	.	.	2f	a-
=13	=13	=13	=13	=13	=13	=13	=13
1C	-i,	1G	-i,	1c	a-	2.e	-gnus
.	.	.	.	.	.	4d	.
1D	.	1F	.	[1A	-gnus	2.f	.
.	.	.	.	.	.	4g	.
=14	=14	=14-	=14	=14	=14	=14	=14
1r	.	0D	.	2A]	.	2a	.
.	.	.	.	2.d	de-	1b-	de-
1F	a-	.	.	.	.	.	.
.	.	.	.	8cL	.	.	.
.	.	.	.	8B-J	.	.	.
.	.	.	.	2A	.	[2a	.
=15	=15	=15	=15	=15	=15	=15	=15
1G	-gnus	1r	.	1B-	.	2a]	.
.	.	.	.	.	.	2g	.
2F	de-	1D	a-	1A	.	1a	-i,
[2D	.	.	.	.	.	.	.
=16	=16	=16-	=16	=16	=16	=16	=16
2D]	.	1F	.	2d	.	1r	.
2F	.	.	.	1d	.	.	.
1E-	.	1G	.	.	.	1g	qui
.	.	.	.	2c	.	.	.
=17	=17	=17	=17	=17	=17	=17	=17
0D	-i,	0A	-gnus	1d	-i,	1.f	tol-
.	.	.	.	2r	.	.	.
.	.	.	.	[2d	qui	2e	.
=18	=18	=18-	=18	=18	=18	=18	=18
[0GG	qui	0G	.	4d]	.	2g	.
.	.	.	.	4c	.	.	.
.	.	.	.	2.d	tol-	2a	.
.	.	.	.	.	.	[1b-	.
.	.	.	.	4c	.	.	.
.	.	.	.	4B-	.	.	.
.	.	.	.	4A	.	.	.
=19	=19	=19	=19	=19	=19	=19	=19
1GG]	.	0d	de-	2.G	.	2b-]	.
.	.	.	.	.	.	4a	.
.	.	.	.	4F	.	4g	.
1BB-	.	.	.	1D	.	1f	.
=20	=20	=20-	=20	=20	=20	=20	=20
1r	.	1c	.	1E	.	1g	.
1BB-	tol-	1d	.	2D	.	2f	.
.	.	.	.	2F	.	[2d	.
=21	=21	=21	=21	=21	=21	=21	=21
!	!	!	!	!LO:TX:Z=8:t=MS&colon; a b c'	!	!	!
0E-	.	1B-	.	2G	.	2d]	.
.	.	.	.	1B-	.	2.b-	.
.	.	1G	.	.	.	.	.
.	.	.	.	.	.	4a	.
.	.	.	.	2c	.	[2g	.
=22	=22	=22-	=22	=22	=22	=22	=22
0D	.	0A	.	1d	-lis,	4g]	.
.	.	.	.	.	.	4f	.
.	.	.	.	.	.	2g	.
.	.	.	.	2r	.	2a	.
.	.	.	.	2d	qui	4f#i	.
.	.	.	.	.	.	4e	.
=23	=23	=23	=23	=23	=23	=23	=23
1GG	-lis,	0G	-i	2e-i	tol-	1g	-lis,
.	.	.	.	2.d	.	.	.
2C	qui	.	.	.	.	1r	.
.	.	.	.	4c	.	.	.
2E-	.	.	.	[2c	.	.	.
=24	=24	=24-	=24	=24	=24	=24	=24
1D	tol-	1r	.	2c]	.	1f	qui
.	.	.	.	2B-	.	.	.
1C	.	1G	qui	2.c	.	2e-i	tol-
.	.	.	.	.	.	[2g	.
.	.	.	.	4d	.	.	.
=25	=25	=25	=25	=25	=25	=25	=25
1GG	.	1d	tol-	1B-	-lis,	4g]	.
.	.	.	.	.	.	4f	.
.	.	.	.	.	.	1d	.
1BB-	.	1d	-lis	1r	.	.	.
.	.	.	.	.	.	2b-	.
=26	=26	=26-	=26	=26	=26	=26	=26
0C	.	1c	pec-	1r	.	2a	.
.	.	.	.	.	.	1g	.
.	.	1c	-ca	1e-i	qui	.	.
.	.	.	.	.	.	[2a	.
=27	=27	=27	=27	=27	=27	=27	=27
1D	-lis,	1A	.	1d	tol-	4a]	.
.	.	.	.	.	.	4g	.
.	.	.	.	.	.	2.f	.
2r	.	1A	-ta	2c	.	.	.
.	.	.	.	.	.	4e	.
2D	qui	.	.	[2d	.	2f	.
=28	=28	=28-	=28	=28	=28	=28	=28
2GG	.	1.G	mun-	2d]	.	2g	.
1C	tol-	.	.	1c	.	2.e	.
.	.	.	.	.	.	4d	.
2D	.	2F	.	[2A	.	[2d	.
=29	=29	=29	=29	=29	=29	=29	=29
1F	-lis,	0D	.	2A]	.	4d]	.
.	.	.	.	.	.	4c	.
.	.	.	.	1F	.	2A	.
1r	.	.	.	.	.	2.B-	.
.	.	.	.	2D	.	.	.
.	.	.	.	.	.	4A	.
=30	=30	=30-	=30	=30	=30	=30	=30
0G	qui	0C	-di,	2E	.	2c	.
.	.	.	.	2F	.	2d	.
.	.	.	.	1G	.	1e	.
=31	=31	=31	=31	=31	=31	=31	=31
1D	tol-	1F	mun-	1A	-lis	2d	.
.	.	.	.	.	.	1d	.
1E-	.	1G	.	2r	.	.	.
.	.	.	.	2G	pec-	2c	.
=32	=32	=32-	=32	=32	=32	=32	=32
1D	-lis	0A	.	2F	-ca-	1d	-lis
.	.	.	.	2D	.	.	.
1C	.	.	.	1E	.	1r	.
=33	=33	=33	=33	=33	=33	=33	=33
1BB-	.	0B-	.	1F	.	1.d	pec-
2r	.	.	.	1G	-ta,	.	.
2GG	pec-	.	.	.	.	[2g	-ca-
=34	=34	=34-	=34	=34	=34	=34	=34
1D	-ca-	1A	.	1r	.	2g]	.
.	.	.	.	.	.	2f	.
1GG	-ta	[1G	.	[1d	pec-	2g	.
.	.	.	.	.	.	[2b-	.
=35	=35	=35	=35	=35	=35	=35	=35
2r	.	2G]	.	1d]	.	2b-]	.
1D	mun-	2F	.	.	.	2a	.
.	.	1D	.	[1d	-ca-	1a	.
2F	.	.	.	.	.	.	.
=36	=36	=36-	=36	=36	=36	=36	=36
1G	-di,	0E	.	2d]	.	1.g	.
.	.	.	.	2.c	.	.	.
2r	.	.	.	.	.	.	.
.	.	.	.	4B-	.	.	.
2G	pec-	.	.	2c	.	4f	.
.	.	.	.	.	.	4g	.
=37	=37	=37	=37	=37	=37	=37	=37
2F	-ca-	0D	-di,	2d	-ta	1a	-ta,
1A	.	.	.	2.f	mun-	.	.
.	.	.	.	.	.	1r	.
.	.	.	.	4e	.	.	.
2F	.	.	.	[2d	.	.	.
=38	=38	=38-	=38	=38	=38	=38	=38
1E-	.	1r	.	2d]	.	1g	pec-
.	.	.	.	2c	.	.	.
[1D	.	1D	mi-	[1d	-di,	[1f	-ca-
=39	=39	=39	=39	=39	=39	=39	=39
1D]	.	1A	.	1d]	.	2f]	.
.	.	.	.	.	.	2g	.
[1F	.	1A	-se-	1c	.	[1a	.
=40	=40	=40-	=40	=40	=40	=40	=40
2F]	.	1c	-re-	1r	.	2a]	.
2E-	.	.	.	.	.	4g	.
.	.	.	.	.	.	4f	.
[1C	-ta	1c	-re	[1G	mun-	[1e	-ta
=41	=41	=41	=41	=41	=41	=41	=41
2C]	.	0G	no-	2G]	.	2e]	.
2GG	mun-	.	.	2.B-	.	2.d	mun-
2.BB-	.	.	.	.	.	.	.
.	.	.	.	4c	.	4c	.
.	.	.	.	[2d	-di,	2B-	.
4C	.	.	.	.	.	.	.
=42	=42	=42-	=42	=42	=42	=42	=42
0D	-di,	0F	.	2d]	.	1A	-di,
.	.	.	.	4c	.	.	.
.	.	.	.	4B-	.	.	.
.	.	.	.	1A	.	2r	.
.	.	.	.	.	.	2d	pec-
=43	=43	=43	=43	=43	=43	=43	=43
1r	.	0A	.	2r	.	2f	-ca-
.	.	.	.	2D	pec-	2g	.
[1D	mun-	.	.	2F	-ca-	1a	.
.	.	.	.	2G	.	.	.
=44	=44	=44-	=44	=44	=44	=44	=44
1D]	.	0d	.	1A	-ta	1f	-ta
1GG	-di,	.	.	2G	mun-	[1b-	mun-
.	.	.	.	2B-	.	.	.
=45	=45	=45	=45	=45	=45	=45	=45
1r	.	1c	.	0F	.	2b-]	.
.	.	.	.	.	.	2a	.
1D	mun-	1A	.	.	.	1a	.
=46	=46	=46-	=46	=46	=46	=46	=46
0GG	.	0B-	.	1G	-di,	1.g	.
.	.	.	.	[1d	.	.	.
.	.	.	.	.	.	4f	.
.	.	.	.	.	.	4g	.
=47	=47	=47	=47	=47	=47	=47	=47
0D	.	0A	-bis,	1d]	.	1.a	.
.	.	.	.	2r	.	.	.
.	.	.	.	2d	mun-	2f	.
=48	=48	=48-	=48	=48	=48	=48	=48
1E-	.	1r	.	2.c	.	1g	-di,
.	.	.	.	4B-	.	.	.
1D	.	1A	mi-	1d	.	1f	.
=49	=49	=49	=49	=49	=49	=49	=49
1C	.	1c	.	1G	-di,	1r	.
1F	.	1c	-se-	1r	.	1a	mi-
=50	=50	=50-	=50	=50	=50	=50	=50
1G	-di,	0G	-re-	1d	mi-	1.b-	.
1E-	.	.	.	1e-i	.	.	.
.	.	.	.	.	.	4a	.
.	.	.	.	.	.	4g	.
=51	=51	=51	=51	=51	=51	=51	=51
2r	.	0d	.	2d	.	2.f	.
2D	mi-	.	.	2B-	.	.	.
.	.	.	.	.	.	4g	.
2F	.	.	.	2A	.	2a	.
2G	.	.	.	[2G	.	2b-	.
=52	=52	=52-	=52	=52	=52	=52	=52
1E-	-se-	0e-i	.	2G]	.	2g	-se-
!	!	!	!	!LO:TX:Z=12:t=MS lacks g m, then has c' m	!	!	!
.	.	.	.	2G	-se-	2.cc	-re-
1C	.	.	.	1c	.	.	.
.	.	.	.	.	.	4b-	.
.	.	.	.	.	.	2g	.
=53	=53	=53	=53	=53	=53	=53	=53
1D	-re-	0d	-re	2A	-re-	2f	.
.	.	.	.	2F	.	2.b-	.
1GG	-re	.	.	2G	.	.	.
.	.	.	.	.	.	4a	.
.	.	.	.	2B-	.	4g	.
.	.	.	.	.	.	4f	.
=54	=54	=54-	=54	=54	=54	=54	=54
*	*	*	*	*	*	*M2/1	*
*	*	*	*	*	*	*met(3)	*
2r	.	1c	no-	1A	-re	3%2e	-re
2AA	no-	.	.	.	.	.	.
.	.	.	.	.	.	3r	.
1BB-	.	1d	.	2D	no-	3f	no-
.	.	.	.	.	.	3g	.
.	.	.	.	2F	.	.	.
.	.	.	.	.	.	3a	.
=55	=55	=55	=55	=55	=55	=55	=55
0E-	.	1B-	.	2G	.	3b-	.
.	.	.	.	.	.	3g	.
.	.	.	.	2B-	.	.	.
.	.	.	.	.	.	3f	.
.	.	1G	.	2c	.	3g	.
.	.	.	.	.	.	3a	.
.	.	.	.	[2e-i	.	.	.
.	.	.	.	.	.	3b-	.
=56	=56	=56-	=56	=56	=56	=56	=56
1C	.	0A	.	4e-]	.	3.cc	.
.	.	.	.	4d	.	.	.
.	.	.	.	4c	.	6b-	.
.	.	.	.	.	.	6a	.
.	.	.	.	4B-	.	.	.
.	.	.	.	.	.	6g	.
1D	-bis,	.	.	2A	.	3g	.
.	.	.	.	.	.	3.f#i	.
.	.	.	.	[2d	.	.	.
.	.	.	.	.	.	6e	.
=57	=57	=57	=57	=57	=57	=57	=57
2r	.	[0Gl	-bis.	2d]	.	[0gl	-bis.
2.E-	no-	.	.	2B-	.	.	.
.	.	.	.	2e-i	.	.	.
4D	.	.	.	.	.	.	.
2BB-	.	.	.	2d	.	.	.
=58	=58	=58-	=58	=58	=58	=58	=58
1C	.	0G_	.	2c	.	0g_	.
.	.	.	.	2B-	.	.	.
[1GGl	-bis.	.	.	1e-i	.	.	.
=59	=59	=59	=59	=59	=59	=59	=59
*	*	*	*	*^	*	*	*
0GG]	.	0G]	.	0B-l\	0dl/	-bis.	0g]	.
*	*	*	*	*v	*v	*	*	*
*	*	*rscale:1	*	*	*	*	*
!!LO:LB:i:g=z
=60||	=60||	=60||	=60||	=60||	=60||	=60||	=60||
*>B	*>B	*>B	*>B	*>B	*>B	*>B	*>B
*clefF4	*	*clefGv2	*	*clefGv2	*	*clefG2	*
*k[b-e-]	*	*k[b-]	*	*k[b-]	*	*k[b-]	*
*M2/1	*	*M2/1	*	*M2/1	*	*M2/1	*
*met(C|)	*	*met(C|)	*	*met(C|)	*	*met(C|)	*
!!!OMD: Agnus II
!!section: Agnus II
0r	.	0r	.	1.D	A-	0r	.
.	.	.	.	2E	.	.	.
=61	=61	=61	=61	=61	=61	=61	=61
0r	.	0r	.	2F	.	0r	.
.	.	.	.	2G	.	.	.
.	.	.	.	2A	.	.	.
.	.	.	.	4G	.	.	.
.	.	.	.	4A	.	.	.
=62	=62	=62	=62	=62	=62	=62	=62
0r	.	0r	.	1.B-	.	1.d	A-
.	.	.	.	2G	.	2e	.
=63	=63	=63	=63	=63	=63	=63	=63
0r	.	0r	.	2A	.	2f	.
.	.	.	.	2B-	.	2g	.
.	.	.	.	2c	.	2a	.
.	.	.	.	4B-	.	4g	.
.	.	.	.	4c	.	4a	.
=64	=64	=64	=64	=64	=64	=64	=64
0r	.	0r	.	1d	.	1.b-	.
.	.	.	.	[1G	.	.	.
.	.	.	.	.	.	2a	.
=65	=65	=65	=65	=65	=65	=65	=65
0r	.	0r	.	2G]	.	2g	.
.	.	.	.	2A	.	2f	.
.	.	.	.	2B-	.	1g	.
.	.	.	.	2c	.	.	.
=66	=66	=66	=66	=66	=66	=66	=66
0r	.	0r	.	2d	.	1f	.
.	.	.	.	4c	.	.	.
.	.	.	.	4d	.	.	.
.	.	.	.	[1e-i	-gnus	[1g	-gnus
=67	=67	=67	=67	=67	=67	=67	=67
0r	.	0r	.	2e-]	.	2g]	.
.	.	.	.	2d	.	2f	.
.	.	.	.	[1d	de-	1d	.
=68	=68	=68	=68	=68	=68	=68	=68
0r	.	0r	.	1d]	.	0e-i	de-
.	.	.	.	1c	.	.	.
=69	=69	=69	=69	=69	=69	=69	=69
0r	.	0r	.	0d	-i,	[0d	-i,
=70	=70	=70	=70	=70	=70	=70	=70
0r	.	0r	.	0r	.	0d]	.
=71	=71	=71	=71	=71	=71	=71	=71
0r	.	0r	.	0G	a-	1r	.
.	.	.	.	.	.	[1d	a-
=72	=72	=72	=72	=72	=72	=72	=72
0r	.	0r	.	1B-	.	1d]	.
.	.	.	.	1A	.	1f	.
=73	=73	=73	=73	=73	=73	=73	=73
0r	.	0r	.	1G	.	1e	.
.	.	.	.	1B-	.	1d	.
=74	=74	=74	=74	=74	=74	=74	=74
0r	.	0r	.	0d	.	1f	.
.	.	.	.	.	.	[1b-	.
=75	=75	=75	=75	=75	=75	=75	=75
0r	.	0r	.	1d	-gnus	2b-]	.
.	.	.	.	.	.	2a	.
.	.	.	.	1c	.	1a	-gnus
=76	=76	=76	=76	=76	=76	=76	=76
0r	.	0r	.	1.B-	de-	1.g	de-
!	!	!	!	!	!	!LO:TX:Z=12:t=MS&colon; 2 m	!
.	.	.	.	4A	.	4f	.
.	.	.	.	4G	.	4g	.
=77	=77	=77	=77	=77	=77	=77	=77
0r	.	0r	.	0F	-i,	0a	-i,
=78	=78	=78	=78	=78	=78	=78	=78
0r	.	0r	.	1r	.	0f	.
.	.	.	.	1A	a-	.	.
=79	=79	=79	=79	=79	=79	=79	=79
0r	.	0r	.	1B-	.	1r	.
.	.	.	.	1c	.	1a	a-
=80	=80	=80	=80	=80	=80	=80	=80
0r	.	0r	.	1.d	-gnus	1.b-	-gnus
.	.	.	.	4c	.	4a	.
.	.	.	.	4B-	.	4g	.
=81	=81	=81	=81	=81	=81	=81	=81
0r	.	0r	.	0A	.	1.f	.
.	.	.	.	.	.	2g	.
=82	=82	=82	=82	=82	=82	=82	=82
0r	.	0r	.	1r	.	1a	.
.	.	.	.	[1D	de-	1r	.
=83	=83	=83	=83	=83	=83	=83	=83
0r	.	0r	.	2D]	.	1.d	de-
.	.	.	.	2E	.	.	.
.	.	.	.	2F	.	.	.
.	.	.	.	2G	.	2e	.
=84	=84	=84	=84	=84	=84	=84	=84
0r	.	0r	.	2A	.	2f	.
.	.	.	.	4G	.	4e	.
.	.	.	.	4A	.	4f	.
.	.	.	.	[1B-	.	[1g	.
=85	=85	=85	=85	=85	=85	=85	=85
0r	.	0r	.	2B-]	.	2g]	.
.	.	.	.	2A	.	2f	.
.	.	.	.	1G	.	2e	.
.	.	.	.	.	.	2d	.
=86	=86	=86	=86	=86	=86	=86	=86
0r	.	0r	.	1F	.	1f	.
.	.	.	.	[1G	.	[1e	.
=87	=87	=87	=87	=87	=87	=87	=87
0r	.	0r	.	2G]	.	2e]	.
.	.	.	.	2F	.	2d	.
.	.	.	.	1D	.	[1d	.
=88	=88	=88	=88	=88	=88	=88	=88
0r	.	0r	.	0E	.	1d]	.
.	.	.	.	.	.	1c#i	.
=89	=89	=89	=89	=89	=89	=89	=89
0r	.	0r	.	[0D	-i,	0d	-i,
=90	=90	=90	=90	=90	=90	=90	=90
0r	.	0r	.	0D]	.	1r	.
.	.	.	.	.	.	1a	qui
=91	=91	=91	=91	=91	=91	=91	=91
0r	.	0r	.	1r	.	1.a	tol-
.	.	.	.	1d	qui	.	.
.	.	.	.	.	.	2g	.
=92	=92	=92	=92	=92	=92	=92	=92
0r	.	0r	.	1.d	tol-	1a	.
.	.	.	.	.	.	1b-	.
.	.	.	.	2c	.	.	.
=93	=93	=93	=93	=93	=93	=93	=93
0r	.	0r	.	0d	.	2a	.
.	.	.	.	.	.	1a	.
.	.	.	.	.	.	2f	.
=94	=94	=94	=94	=94	=94	=94	=94
0r	.	0r	.	1e-i	-lis	1g	-lis
.	.	.	.	2d	pec-	1f	pec-
.	.	.	.	[2d	-ca-	.	.
=95	=95	=95	=95	=95	=95	=95	=95
0r	.	0r	.	2d]	.	1b-	-ca-
.	.	.	.	2B-	.	.	.
.	.	.	.	1c	.	1a	.
=96	=96	=96	=96	=96	=96	=96	=96
0r	.	0r	.	1B-	.	0g	.
.	.	.	.	1e-i	.	.	.
=97	=97	=97	=97	=97	=97	=97	=97
0r	.	0r	.	1d	.	1f	.
.	.	.	.	1c	.	1e	.
=98	=98	=98	=98	=98	=98	=98	=98
0r	.	0r	.	1B-	.	2d	.
.	.	.	.	.	.	1g	.
.	.	.	.	1A	.	.	.
.	.	.	.	.	.	2f	.
=99	=99	=99	=99	=99	=99	=99	=99
0r	.	0r	.	1G	.	1b-	.
.	.	.	.	[1c	.	[1a	.
=100	=100	=100	=100	=100	=100	=100	=100
0r	.	0r	.	1c]	.	2a]	.
.	.	.	.	.	.	2g	.
.	.	.	.	1B-	.	[1g	.
=101	=101	=101	=101	=101	=101	=101	=101
0r	.	0r	.	1G	.	1g]	.
.	.	.	.	1A	.	1f	.
=102	=102	=102	=102	=102	=102	=102	=102
0r	.	0r	.	1B-	.	1g	.
.	.	.	.	1c	.	1a	.
=103	=103	=103	=103	=103	=103	=103	=103
0r	.	0r	.	0d	-ta,	1.b-	-ta,
.	.	.	.	.	.	4a	.
.	.	.	.	.	.	4g	.
=104	=104	=104	=104	=104	=104	=104	=104
0r	.	0r	.	1r	.	0f	.
.	.	.	.	[1d	qui	.	.
=105	=105	=105	=105	=105	=105	=105	=105
0r	.	0r	.	2d]	.	1r	.
.	.	.	.	2c	.	.	.
.	.	.	.	2B-	.	1g	qui
.	.	.	.	4A	.	.	.
.	.	.	.	4G	.	.	.
=106	=106	=106	=106	=106	=106	=106	=106
0r	.	0r	.	0A	.	1.f	tol-
.	.	.	.	.	.	4e	.
.	.	.	.	.	.	4d	.
=107	=107	=107	=107	=107	=107	=107	=107
0r	.	0r	.	1.G	tol-	1g	.
.	.	.	.	.	.	[1d	.
.	.	.	.	2F	.	.	.
=108	=108	=108	=108	=108	=108	=108	=108
0r	.	0r	.	0D	-lis	2d]	.
.	.	.	.	.	.	2c	.
.	.	.	.	.	.	2B-	.
.	.	.	.	.	.	4A	.
.	.	.	.	.	.	4G	.
=109	=109	=109	=109	=109	=109	=109	=109
0r	.	0r	.	1r	.	0A	-lis
.	.	.	.	1F	pec-	.	.
=110	=110	=110	=110	=110	=110	=110	=110
0r	.	0r	.	1.G	-ca-	1r	.
.	.	.	.	.	.	1d	pec-
.	.	.	.	2A	.	.	.
=111	=111	=111	=111	=111	=111	=111	=111
0r	.	0r	.	1.B-	.	1.d	-ca-
.	.	.	.	4A	.	4c	.
.	.	.	.	4G	.	4B-	.
=112	=112	=112	=112	=112	=112	=112	=112
0r	.	0r	.	0F	-ta	0A	-ta
=113	=113	=113	=113	=113	=113	=113	=113
0r	.	0r	.	1r	.	1G	mun-
.	.	.	.	1G	mun-	1B-	.
=114	=114	=114	=114	=114	=114	=114	=114
0r	.	0r	.	1.F#i	.	0A	-di,
.	.	.	.	4E	.	.	.
.	.	.	.	4F#i	.	.	.
=115	=115	=115	=115	=115	=115	=115	=115
0r	.	0r	.	1G	-di,	1r	.
.	.	.	.	[1B-	pec-	1G	pec-
=116	=116	=116	=116	=116	=116	=116	=116
0r	.	0r	.	2B-]	.	1.B-	-ca-
.	.	.	.	2c	.	.	.
.	.	.	.	1d	.	.	.
.	.	.	.	.	.	2c	.
=117	=117	=117	=117	=117	=117	=117	=117
0r	.	0r	.	2G	-ca-	1d	.
.	.	.	.	1B-	.	.	.
.	.	.	.	.	.	1G	.
.	.	.	.	2c	.	.	.
=118	=118	=118	=118	=118	=118	=118	=118
0r	.	0r	.	2d	.	1.B-	.
.	.	.	.	2e	.	.	.
.	.	.	.	1f	-ta	.	.
.	.	.	.	.	.	2c	.
=119	=119	=119	=119	=119	=119	=119	=119
0r	.	0r	.	1.B-	mun-	2d	.
.	.	.	.	.	.	2e	.
.	.	.	.	.	.	1f	-ta
.	.	.	.	2c	.	.	.
=120	=120	=120	=120	=120	=120	=120	=120
0r	.	0r	.	1d	-di,	1.B-	mun-
.	.	.	.	[1G	mun-	.	.
.	.	.	.	.	.	2c	.
=121	=121	=121	=121	=121	=121	=121	=121
0r	.	0r	.	2G]	.	1.d	.
.	.	.	.	2A	.	.	.
.	.	.	.	2B-	.	.	.
.	.	.	.	2c	.	2e	.
=122	=122	=122	=122	=122	=122	=122	=122
0r	.	0r	.	1d	-di,	2f	.
.	.	.	.	.	.	2g	.
.	.	.	.	[1D	mun-	1a	-di,
=123	=123	=123	=123	=123	=123	=123	=123
0r	.	0r	.	2D]	.	1.d	mun-
.	.	.	.	2E	.	.	.
.	.	.	.	2F	.	.	.
.	.	.	.	2G	.	2e	.
=124	=124	=124	=124	=124	=124	=124	=124
0r	.	0r	.	2A	.	2f	.
.	.	.	.	2B-	.	2g	.
.	.	.	.	[1c	.	2a	.
.	.	.	.	.	.	2b-	.
=125	=125	=125	=125	=125	=125	=125	=125
0r	.	0r	.	2c]	.	1.cc	.
.	.	.	.	2B-	.	.	.
.	.	.	.	2A	.	.	.
.	.	.	.	2G	.	2b-	.
=126	=126	=126	=126	=126	=126	=126	=126
0r	.	0r	.	1A	.	2.a	.
.	.	.	.	.	.	4g	.
.	.	.	.	1F	.	1a	.
=127	=127	=127	=127	=127	=127	=127	=127
0r	.	0r	.	1D	.	1f	.
.	.	.	.	1F	.	1d	.
=128	=128	=128	=128	=128	=128	=128	=128
0r	.	0r	.	0E	.	2e	.
.	.	.	.	.	.	1c#i	.
!	!	!	!	!	!	!LO:TX:Z=32:t=MS&colon; a	!
.	.	.	.	.	.	2Bni	.
=129	=129	=129	=129	=129	=129	=129	=129
*M3/3%2	*	*M3/3%2	*	*M3/3%2	*	*M3/3%2	*
*met()	*	*met()	*	*met(3)	*	*met(3)	*
0r	.	0r	.	[3%4.D	-di,	3%4.d	-di,
=130	=130	=130	=130	=130	=130	=130	=130
0r	.	0r	.	3%4.D]	.	3%4a	mi-
.	.	.	.	.	.	3%2f	.
=131	=131	=131	=131	=131	=131	=131	=131
0r	.	0r	.	3%4.r	.	3%2g	.
.	.	.	.	.	.	3%4a	.
=132	=132	=132	=132	=132	=132	=132	=132
0r	.	0r	.	3%4d	mi-	3%2f	-se-
.	.	.	.	.	.	3%4b-	-re-
.	.	.	.	3%2B-	.	.	.
=133	=133	=133	=133	=133	=133	=133	=133
0r	.	0r	.	3%2c	.	3%2a	.
.	.	.	.	3%4d	.	3%2f	.
.	.	.	.	.	.	3%2b-	.
=134	=134	=134	=134	=134	=134	=134	=134
0r	.	0r	.	3%2c	-se-	3%2a	.
.	.	.	.	3%4e-i	-re-	3%4g	.
=135	=135	=135	=135	=135	=135	=135	=135
0r	.	0r	.	3%2d	.	3%2.f	.
.	.	.	.	3%2B-	.	.	.
.	.	.	.	.	.	3d	.
.	.	.	.	3%2e-i	.	3%2g	.
=136	=136	=136	=136	=136	=136	=136	=136
0r	.	0r	.	3%2d	.	3%2f	-re
.	.	.	.	3%4c	-re	3%2.a	no-
.	.	.	.	.	.	3g	.
=137	=137	=137	=137	=137	=137	=137	=137
0r	.	0r	.	3%2B-	no-	3%2.b-	.
.	.	.	.	3%2F	.	.	.
.	.	.	.	.	.	6a	.
.	.	.	.	.	.	6b-	.
.	.	.	.	3%2c	.	3a	.
.	.	.	.	.	.	3g	.
=138	=138	=138	=138	=138	=138	=138	=138
0r	.	0r	.	3%2B-	.	3%2.g	.
.	.	.	.	3%4A	.	.	.
.	.	.	.	.	.	3e	.
.	.	.	.	.	.	3%2f	.
=139	=139	=139	=139	=139	=139	=139	=139
0r	.	0r	.	3%2.G	.	3%2g	-bis,
.	.	.	.	.	.	3%2e	.
.	.	.	.	3E	.	.	.
.	.	.	.	3%2F	.	[3%2d	.
=140	=140	=140	=140	=140	=140	=140	=140
0r	.	0r	.	3%2G	-bis,	3%2d]	.
!	!	!	!	!LO:TX:Z=12:t=MS&colon; f	!	!	!
.	.	.	.	3%2E	.	3%2g	no-
.	.	.	.	3%2D	.	3%2f	.
=141	=141	=141	=141	=141	=141	=141	=141
0r	.	0r	.	3%2G	no-	3%2b-	.
.	.	.	.	3%2F	.	3%2.a	.
.	.	.	.	[3%2B-	.	.	.
.	.	.	.	.	.	3g	.
=142	=142	=142	=142	=142	=142	=142	=142
0r	.	0r	.	3%2B-]	.	3%4g	.
.	.	.	.	3%4A	.	.	.
.	.	.	.	.	.	3%2f#i	.
=143	=143	=143	=143	=143	=143	=143	=143
0r	.	0r	.	3%4.Gl	-bis.	3%4.gl	-bis.
!!LO:LB:i:g=z
=144||	=144||	=144||	=144||	=144||	=144||	=144||	=144||
*>C	*>C	*>C	*>C	*>C	*>C	*>C	*>C
*clefF4	*	*clefGv2	*	*clefGv2	*	*clefG2	*
*k[b-e-]	*	*k[b-]	*	*k[b-]	*	*k[b-]	*
*M2/1	*	*M2/1	*	*M2/1	*	*M2/1	*
*met(C)	*	*met(C)	*	*met(C)	*	*met(C)	*
*MM300	*	*MM300	*	*MM300	*	*MM300	*
!!!OMD: Agnus III
!!section: Agnus III
1G	A-	0r	.	1G	A-	1.G	A-
1E-	-gnus	.	.	2B-	-gnus	.	.
.	.	.	.	2c	.	2G	-gnus
=145	=145	=145	=145	=145	=145	=145	=145
1D	de-	0r	.	2.d	de-	1B-	de-
.	.	.	.	4c	.	.	.
2C	.	.	.	2A	.	2c	.
2BB-	.	.	.	[2B-	.	[2d	.
=146	=146	=146	=146	=146	=146	=146	=146
1GG	.	0r	.	4B-]	.	4d]	.
.	.	.	.	4A	.	4c	.
.	.	.	.	1G	.	2B-	.
1D	.	.	.	.	.	1A	.
.	.	.	.	2F#i	.	.	.
=147	=147	=147	=147	=147	=147	=147	=147
0GG	-i,	1G	A-	2G	-i,	1G	-i,
.	.	.	.	2B-	a-	.	.
.	.	2G	-gnus	2c	.	2r	.
.	.	2G	de-	[2d	.	[2g	a-
=148	=148	=148	=148	=148	=148	=148	=148
2r	.	1B-	.	4d]	.	4g]	.
.	.	.	.	4c	.	4f	.
2G	a-	.	.	2e	.	2g	.
2F	-gnus	2c	.	2f	-gnus	2a	-gnus
2D	.	2d	.	[2d	de-	[2b-	de-
=149	=149	=149	=149	=149	=149	=149	=149
2G	de-	2B-	.	2d]	.	4b-]	.
.	.	.	.	.	.	4g	.
2E-	.	2G	.	2c	.	1g	.
1D	.	1A	.	[1d	-i,	.	.
.	.	.	.	.	.	2f	.
=150	=150	=150	=150	=150	=150	=150	=150
2GG	-i,	2G	-i,	1d]	.	2b-	.
2.D	a-	2F	.	.	.	2.a	.
.	.	1D	.	2r	.	.	.
4E-	.	.	.	.	.	4g	.
2F	.	.	.	2d	a-	4f	.
.	.	.	.	.	.	4e	.
=151	=151	=151	=151	=151	=151	=151	=151
2G	.	2r	.	2B-	.	0d	-i,
2.A	.	2D	a-	2A	.	.	.
.	.	2F	.	2D	.	.	.
4G	.	.	.	.	.	.	.
[2G	.	2G	.	2G	.	.	.
=152	=152	=152	=152	=152	=152	=152	=152
2G]	.	1A	-gnus	1D	-gnus	0r	.
2F#i	.	.	.	.	.	.	.
2G	-gnus	1G	.	2r	.	.	.
[2B-	de-	.	.	[2d	de-	.	.
=153	=153	=153	=153	=153	=153	=153	=153
4B-]	.	1d	de-	4d]	.	0r	.
4A	.	.	.	4c	.	.	.
4G	.	.	.	4B-	.	.	.
4F	.	.	.	4A	.	.	.
2E-	.	2c	.	2G	.	.	.
[2D	.	2d	.	2A	.	.	.
=154	=154	=154	=154	=154	=154	=154	=154
2D]	.	2B-	.	1d	-i,	0r	.
1G	.	2G	.	.	.	.	.
.	.	1A	.	2r	.	.	.
2F#i	.	.	.	2c	qui	.	.
=155	=155	=155	=155	=155	=155	=155	=155
1G	-i,	1G	-i,	2B-	tol-	2r	.
.	.	.	.	1d	.	2d	qui
2r	.	2r	.	.	.	2f	tol-
2E-	qui	2G	qui	2c	.	2g	.
=156	=156	=156	=156	=156	=156	=156	=156
2D	tol-	2d	tol-	2d	.	2a	.
2G	.	2d	-lis	2B-	.	2b-	.
1C	-lis	2c	pec-	2.e-i	.	4cc	.
.	.	.	.	.	.	4b-	.
.	.	2c	-ca-	.	.	4a	.
.	.	.	.	4d	.	4g	.
=157	=157	=157	=157	=157	=157	=157	=157
2r	.	2A	.	2c	.	1f	-lis
2D	pec-	2A	-ta	1d	-lis	.	.
2GG	-ca-	2.G	mun-	.	.	2r	.
2C	.	.	.	2c	pec-	2e	pec-
.	.	4F	.	.	.	.	.
=158	=158	=158	=158	=158	=158	=158	=158
!	!	!	!	!	!	!LO:TX:Z=32:t=MS&colon; d f minims	!
2D	.	1D	.	2A	-ca-	1f	-ca-
2F	.	.	.	2B-	.	.	.
2E-	.	1C	-di,	1c	-ta	2g	-ta
2C	.	.	.	.	.	[2a	mun-
=159	=159	=159	=159	=159	=159	=159	=159
2D	.	2F	mun-	1r	.	4a]	.
.	.	.	.	.	.	4g	.
2GG	.	2G	.	.	.	2b-	.
1D	-ta	1A	.	1d	mun-	4a	.
.	.	.	.	.	.	2f	.
.	.	.	.	.	.	4e	.
=160	=160	=160	=160	=160	=160	=160	=160
2r	.	1B-	.	2G	.	4g	.
.	.	.	.	.	.	4f	.
2GG	mun-	.	.	2B-	.	4e	.
.	.	.	.	.	.	4d	.
2FF	.	2A	.	2.c	.	2f	.
[2C	.	[2G	.	.	.	[2e	.
.	.	.	.	4B-	.	.	.
=161	=161	=161	=161	=161	=161	=161	=161
2C]	.	4G]	.	2c	.	4e]	.
.	.	4F	.	.	.	4d	.
2D	.	2D	.	2.A	.	1d	.
1AA	-di,	1E	.	.	.	.	.
.	.	.	.	4G	.	.	.
.	.	.	.	[2A	.	2c#i	.
=162	=162	=162	=162	=162	=162	=162	=162
2r	.	1D	-di,	4A]	.	2d	-di,
.	.	.	.	4G	.	.	.
2D	do-	.	.	4F	.	2r	.
.	.	.	.	4E	.	.	.
2A	.	2r	.	1D	-di,	2d	do-
2A	-na	2D	do-	.	.	2a	.
=163	=163	=163	=163	=163	=163	=163	=163
1F	no-	2A	.	0r	.	2a	-na
.	.	2A	-na	.	.	2.cc	.
1C	.	2c	no-	.	.	.	.
.	.	.	.	.	.	4b-	.
.	.	2c	-bis	.	.	4a	.
.	.	.	.	.	.	4g	.
=164	=164	=164	=164	=164	=164	=164	=164
2BB-	.	1G	pa-	2.d	do-	1b-	no-
2GG	.	.	.	.	.	.	.
.	.	.	.	4e	.	.	.
[1D	-bis,	1F	.	1f	-na	1a	-bis
=165	=165	=165	=165	=165	=165	=165	=165
1D]	.	1A	.	1d	.	3.fV	pa-
.	.	.	.	.	.	6g	.
.	.	.	.	.	.	3%2a	.
!	!	!	!	!LO:TX:Z=12:t=MS&colon; sb rest	!	!	!
1r	.	1d	.	1r	.	.	.
.	.	.	.	.	.	3.b-	.
.	.	.	.	.	.	6aZ	.
=166	=166	=166	=166	=166	=166	=166	=166
!	!	!	!	!	!	!LO:TX:Z=32:t=MS&colon; g'	!
3%2FV	do-	2c	.	1r	.	3%2aV	.
.	.	2A	.	.	.	.	.
3%2D	.	.	.	.	.	3%2f	.
.	.	1B-	.	[1d	no-	.	.
3%2GGZ	.	.	.	.	.	3%2gZ	.
=167	=167	=167	=167	=167	=167	=167	=167
1D	.	1A	-cem,	1d]	.	1a	cem,
2F	-na	2r	.	1c	.	3%2aV	do-
2F	no-	2A	do-	.	.	.	.
.	.	.	.	.	.	[3ccZ	.
=168	=168	=168	=168	=168	=168	=168	=168
1C	-bis,	2c	.	1e-	-bis,	6cc]V	.
.	.	.	.	.	.	6b-	.
.	.	.	.	.	.	3g	.
.	.	2c	-na	.	.	.	.
.	.	.	.	.	.	3a	.
2r	.	1G	.	1d	.	3b-	.
.	.	.	.	.	.	3g	.
2G	do-	.	.	.	.	.	.
.	.	.	.	.	.	[3b-Z	.
=169	=169	=169	=169	=169	=169	=169	=169
2D	.	1d	no-	1r	.	3b-]V	.
.	.	.	.	.	.	3a	.
2F	.	.	.	.	.	.	.
.	.	.	.	.	.	3fZ	.
1E-	-na	1e-i	.	1c	no-	1g	-na
=170	=170	=170	=170	=170	=170	=170	=170
1BB-	no-	1d	-bis	2d	.	3fV	no-
.	.	.	.	.	.	3.b-	.
.	.	.	.	2B-	.	.	.
.	.	.	.	.	.	6a	.
3%2F	-bis	2c	pa-	2.c	.	3.a	-bis
.	.	2d	.	.	.	6g	.
[3D	pa-	.	.	.	.	6f	.
.	.	.	.	4A	.	.	.
.	.	.	.	.	.	6eZ	.
=171	=171	=171	=171	=171	=171	=171	=171
3D]	.	2B-	.	2.B-	-bis	3%2dV	.
3%2G	.	.	.	.	.	.	.
.	.	2G	.	.	.	.	.
.	.	.	.	.	.	3%2g	pa-
.	.	.	.	4c	.	.	.
1D	.	1A	.	[1d	pa-	.	.
.	.	.	.	.	.	3.f#i	.
.	.	.	.	.	.	6eZ	.
=172	=172	=172	=172	=172	=172	=172	=172
0GGl	-cem.	0Gl	-cem.	2d]	.	3%4.gl	-cem.
.	.	.	.	2B-	.	.	.
.	.	.	.	1dl	-cem.	.	.
==	==	==	==	==	==	==	==
*-	*-	*-	*-	*-	*-	*-	*-
!!!RDF**kern: l=long note in original notation
!!!RDF**kern: i=editorial accidental
!!!RDF**kern: V = start of tuplet marker
!!!RDF**kern: Z = end of tuplet marker
!!!ENC: Jesse Rodin and Emily Zazulia
!!!END: 2019/02/01/
!!!EED: Jesse Rodin
!!!EEV: 2019/02/21/
!!!ONB: Translated from MusicXML and edited on 2019/02/21/ by Craig Sapp
!!muse2ps: T^@{OPR}^u^@{ONM}{. }@{OTL}^C^@{COM}\n@{SMS}^v90,90,90,130i2c115z18l2650
